!!!COM:	Johannes Ockeghem
!!!CDT:	~1425-1497/02/06
!!!OTL:	Les desl&eacute;aulx
!!!AGN:	Chanson
!!!SCT:	Ock3010
!!!SCA:	Ock3010
!!!voices:	3
**kern	**kern	**kern
*staff3	*staff2	*staff1
*Ivox	*Ivox	*Ivox
*I"Contra	*I"Tenor	*I"Discantus
*I'C	*I'T	*I'D
*clefF4	*clefGv2	*clefG2
*k[]	*k[]	*k[]
*M2/1	*M2/1	*M2/1
*met(C)	*met(C)	*met(C)
!!incipit: 5
=1-	=1-	=1-
!	!	!LO:TX:Z=15:t=Form&colon; rondeau
0A	1D	1d
.	2F/	2c/
.	2D/	2d/
=2	=2	=2
2r	1E	2B/
2AA/	.	2c/
2BB/	1D	2d/
4C/	.	2f/
4D\	.	.
=3	=3	=3
1AA	2.A/	2e/
.	.	2.a/
.	4B\	.
1A	1c	.
.	.	4g/
.	.	2e/
=4	=4	=4
1D	1d	2f/
.	.	2d/
2r	2B\	2.g/
[2C/	2G/	.
.	.	4f/
=5	=5	=5
2C/]	2A/	4e/
.	.	4d/
2D\	2F/	1d
1AA	1E	.
.	.	2c#i/
=6	=6	=6
2r	0D	1d
2A\	.	.
2B\	.	2r
2B\	.	2d/
=7	=7	=7
2c\	2r	2e/
2c\	2C/	2e/
1A	2D/	2f/
.	2D/	2f/
=8	=8	=8
2r	2E/	2e/
2G\	2E/	1c
2A\	2F/	.
2A\	2F/	2d/
=9	=9	=9
2B\	2E/	2.e/
4c\	1C	.
4d\	.	8f/L
.	.	8g/J
2e\	.	2.a/
2d\	2D/	.
.	.	8g/L
.	.	8a/J
=10	=10	=10
2r	1E	2g/
2c\	.	2e/
1d	1D	2f/
.	.	2d/
=11	=11	=11
1r	2A/	2c/
.	2B\	2d/
[1c	[1A	2.f/
.	.	4e/
=12	=12	=12
2c\]	2A/]	2f/
2B\	2G/	1e
1A	1F	.
.	.	2d/
=13	=13	=13
1G;	1E;	0e;
1A	1c	.
=14	=14	=14
1E	2B\	1r
.	2B\	.
2r	2A/	1f
2D\	[2d\	.
=15	=15	=15
1A	4d\]	2e/
.	4B\	.
.	2c\	2e/
1D	2.d\	2d/
.	.	2f/
.	4B\	.
=16	=16	=16
2r	2.c\	2e/
2AA/	.	2c/
.	4A/	.
1D	2B\	2d/
.	2A/	2f/
=17	=17	=17
1A	2c\	2e/
.	2A/	1a
1E	1B	.
.	.	2g/
=18	=18	=18
1D	2r	2.a/
.	2f\	.
.	.	4f/
2r	2e\	2g/
2AA/	2c\	2e/
=19	=19	=19
1D	2.d\	2d/
.	.	2f/
.	4c\	.
1r	2A/	2e/
.	2G/	[2g/
=20	=20	=20
1GG	1B-i	4g/]
.	.	4f/
.	.	4e/
.	.	4d/
[1AA	2.A/	2f/
.	.	2e/
.	4G/	.
=21	=21	=21
1AA]	4F/	2r
.	4D/	.
.	2E/	2c/
1D	2r	2d/
.	2B\	4c/
.	.	4d/
=22	=22	=22
1A	2c\	2e/
.	4B\	4d/
.	4c\	4e/
2r	2d\	2f/
[2B-i\	2f\	2d/
=23	=23	=23
4B-\]	1e	2r
4G\	.	.
2A\	.	2c/
1D	2.f\	2d/
.	.	2B/
.	4d\	.
=24	=24	=24
2r	1e	2c/
2E\	.	4B/
.	.	4c/
2F\	2r	2d/
2D\	[2A/	2f/
=25	=25	=25
1C	4A/]	2e/
.	4G/	.
.	2E/	2c/
2r	2F/	2d/
[2A\	4E/	4c/
.	4D/	4d/
=26	=26	=26
4A\]	1C	2e/
4G\	.	.
2E\	.	2A/
2G\	2r	2B/
2F\	2A/	2c/
=27	=27	=27
1D	2B\	2d/
.	4A/	2f/
.	4B\	.
1C	2.c\	2e/
.	.	[2a/
.	4A/	.
=28	=28	=28
2D\	2B\	4a/]
.	.	4g/
2E\	2c\	2e/
2D\	2d\	2f/
2BB/	2G/	2d/
=29	=29	=29
2AA/	2.A/	1c
2.C/	.	.
.	8G/L	.
.	8F/J	.
.	2E/	2.g/
4D\	.	.
2E\	2C/	.
.	.	4f/
=30	=30	=30
2AA/	2F/	4e/
.	.	4d/
2BB-i/	2D/	1d
1AA	1E	.
.	.	2c#i/
=31	=31	=31
0Al	0Dl	0dl
==	==	==
*-	*-	*-
!!!RDF**kern: l=long note in original notation
!!!RDF**kern: i=editorial accidental
!!!RDF**kern: V=start of tuplet marker
!!!RDF**kern: Z=end of tuplet marker
!!!ENC:	Chris Gage 06-25-2012
!!!END:	2012/08/16/
!!!EED:	Jesse Rodin
!!!EEV:	2012/08/16/
!!!ONB:	Translated from MusicXML and edited on 2012/08/16/ by Craig Sapp
!!muse2ps: C^@{COM}^i2I150v95,95,150Q16
